static/media/misc/youtube.svg

<svg width="234.67" height="234.67" version="1.1" viewBox="0 0 234.67 234.67" xml:space="preserve" xmlns="http://www.w3.org/2000/svg"><defs><clipPath id="clipPath18"><path d="m0 192h192v-192h-192z"/></clipPath></defs><g transform="matrix(1.3333 0 0 -1.3333 -10.667 210.67)"><g transform="matrix(1 0 0 1 0 -26)"><g clip-path="url(#clipPath18)"><g transform="translate(78 69.831)"><path d="m0 0v52.338l46-26.17zm102.32 68.806c-2.024 7.622-7.988 13.624-15.56 15.661-13.725 3.702-68.762 3.702-68.762 3.702s-55.037 0-68.762-3.702c-7.572-2.037-13.536-8.039-15.56-15.661-3.678-13.814-3.678-42.637-3.678-42.637s0-28.822 3.678-42.637c2.024-7.622 7.988-13.624 15.56-15.662 13.725-3.701 68.762-3.701 68.762-3.701s55.037 0 68.762 3.701c7.572 2.038 13.536 8.04 15.56 15.662 3.678 13.815 3.678 42.637 3.678 42.637s0 28.823-3.678 42.637" fill="#fff"/></g></g></g></g></svg>

<?xml version="1.0" encoding="UTF-8" standalone="no"?>
<svg
   xmlns:dc="http://purl.org/dc/elements/1.1/"
   xmlns:cc="http://creativecommons.org/ns#"
   xmlns:rdf="http://www.w3.org/1999/02/22-rdf-syntax-ns#"
   xmlns:svg="http://www.w3.org/2000/svg"
   xmlns="http://www.w3.org/2000/svg"
   xmlns:sodipodi="http://sodipodi.sourceforge.net/DTD/sodipodi-0.dtd"
   xmlns:inkscape="http://www.inkscape.org/namespaces/inkscape"
   version="1.1"
   id="svg2"
   xml:space="preserve"
   width="256"
   height="256"
   viewBox="0 0 256 256"
   sodipodi:docname="yt_icon_cymk_mono_dark.ai"><metadata
     id="metadata8"><rdf:RDF><cc:Work
         rdf:about=""><dc:format>image/svg+xml</dc:format><dc:type
           rdf:resource="http://purl.org/dc/dcmitype/StillImage" /></cc:Work></rdf:RDF></metadata><defs
     id="defs6"><clipPath
       clipPathUnits="userSpaceOnUse"
       id="clipPath18"><path
         d="M 0,192 H 192 V 0 H 0 Z"
         id="path16" /></clipPath></defs><sodipodi:namedview
     pagecolor="#ffffff"
     bordercolor="#666666"
     borderopacity="1"
     objecttolerance="10"
     gridtolerance="10"
     guidetolerance="10"
     inkscape:pageopacity="0"
     inkscape:pageshadow="2"
     inkscape:window-width="640"
     inkscape:window-height="480"
     id="namedview4" /><g
     id="g10"
     inkscape:groupmode="layer"
     inkscape:label="yt_icon_cymk_mono_dark"
     transform="matrix(1.3333333,0,0,-1.3333333,0,256)"><g
       id="g12"><g
         id="g14"
         clip-path="url(#clipPath18)"><g
           id="g20"
           transform="translate(78,69.8311)"><path
             d="M 0,0 V 52.338 L 46,26.168 Z M 102.322,68.806 C 100.298,76.428 94.334,82.43 86.762,84.467 73.037,88.169 18,88.169 18,88.169 c 0,0 -55.037,0 -68.762,-3.702 C -58.334,82.43 -64.298,76.428 -66.322,68.806 -70,54.992 -70,26.169 -70,26.169 c 0,0 0,-28.822 3.678,-42.637 2.024,-7.622 7.988,-13.624 15.56,-15.662 13.725,-3.701 68.762,-3.701 68.762,-3.701 0,0 55.037,0 68.762,3.701 7.572,2.038 13.536,8.04 15.56,15.662 C 106,-2.653 106,26.169 106,26.169 c 0,0 0,28.823 -3.678,42.637"
             style="fill:#ffffff;fill-opacity:1;fill-rule:nonzero;stroke:none"
             id="path22" /></g></g></g></g></svg>
